X:1
T:Old 100th, LM
T:Attributed to Louis Bourgeois, 1551
T:All people that on earth do dwell
T:(Old 100th)
T:William Kethe
T:A4
T:ST MARY'S CATHEDRAL, KUALA LUMPUR: 10:30 CHOIR. Public Domain.
C:Attributed to Louis Bourgeois, 1551
Z:ST MARY'S CATHEDRAL, KUALA LUMPUR: 10:30 CHOIR. Public Domain.
%%score ( 1 2 ) ( 3 4 )
L:1/8
M:4/4
K:G
V:1 treble nm="Pipe Organ"
V:2 treble 
V:3 bass nm="Pipe Organ"
V:4 bass 
V:1
 [DG]4 | [DG]2 [DF]2 [B,E]2 [B,D]2 | [B,G]4 [DA]4 | [DB]4 || [DB]4 | [DB]2 [DB]2 [DA]2 [B,G]2 | %6
w: 1.~All|peo- ple that on|Earth do|dwell;|sing|to the Lord with|
w: 2.~The|Lord, ye know is|God in-|deed;|with-|out our aid he|
w: 3.~O|en- ter then his|gates with|praise,|ap-|proach with joy his|
w: 4.~For|why? The Lord our|God is|good;|his|mer- cy is for-|
w: 5.~To|Fa- ther, Son. and|Ho- ly|Ghost,|the|God whom heav'n and|
 [Ec]4 [DB]4 | [DA]4 || G4 | [DA]2 [DB]2 [DA]2 [DG]2 | [CE]4 [CF]4 | [DG]4 || [Dd]4 | %13
w: cheer- ful|voice;|him|serve with fear, his|praise forth|tell,|come|
w: did us|make;|we|are his folk, he|doth us|feed,|and|
w: courts un-|to;|praise,|laud, and bless his|name al-|ways,|for|
w: ev- er|sure;|his|truth at all times|firm- ly|stood,|and|
w: earth a-|dore,|from|men and from the|an- gel|host|be|
 [DB]2 G2 [FA]2 [Ec]2 | [GB]4 [FA]4 | [B,G]4 |] %16
w: ye be- fore him|and re-|joice.|
w: for his sheep he|doth us|take.|
w: it is seem- ly|so to|do.|
w: shall from age to|age en-|dure.|
w: praise and glo- ry|ev- er-|more.|
"^Alternative harmonization (Tenor Lead); John Dowland 1532-1626" [DB]4 | [DB]2 [DA]2 .c2 B2 | %18
w: 4.For|why? The Lord our|
w: 5.To|Fa- ther, Son and|
w: ||
w: ||
w: ||
 B4 [Fd]4 | [Gd]4 || [Gd]4 | [Gd]2 [Gd]2 [Fd]2 [EB]2 | [Ge]4 [Gd]4 | [Fd]4 || [DB]4 | %25
w: God is|Good;|his|mer- cy is for-|ev- er|sure;|his|
w: Ho- ly|Ghost;|the|God whom heav'n and|earth a-|dore,|from|
w: |||||||
w: |||||||
w: |||||||
 [FA]2 [DG]2 F2 d2 | c4 [DA]4 | [DB]4 || [GB]4 | [DG]2 [GG]2 [Fd]2 [Ge]2 | [Gd]4 (d3 c) | B4 |] %32
w: truth at all times|firm- ly|stood,|and|shall from age to|age en- *|dure.|
w: men and from the|an- gel|host,|be|praise and glo- ry|ev- er- *|more.|
w: |||||||
w: |||||||
w: |||||||
[Q:1/4=30] [EG]4 [DG]4 |] %33
w: A- men|
w: |
w: |
w: |
w: |
V:2
 x4 | x8 | x8 | x4 || x4 | x8 | x8 | x4 || G4 | x8 | x8 | x4 || x4 | x2 G2 x4 | x8 | x4 |] x4 | %17
 x4 EF G2 | G4 x4 | x4 || x4 | x8 | x8 | x4 || x4 | x4 (D3 D) | E4 x4 | x4 || x4 | x8 | x4 F4 | %31
 B,4 |] x8 |] %33
V:3
 [G,B,]4 | [G,B,]2 [D,A,]2 [E,G,]2 [B,,F,]2 | [E,G,]4 [D,F,]4 | [G,,G,]4 || G,4 | %5
 G,2 G,2 [D,F,]2 [E,G,]2 | [C,G,]4 [G,,G,]4 | [D,F,]4 || [E,B,]4 | [F,A,]2 G,2 [D,F,]2 [B,,G,]2 | %10
 [C,G,]4 [A,,A,]4 | [G,,B,]4 || [F,A,]4 | G,2 [E,B,]2 [D,D]2 [A,,E]2 | (B,,2 C,2) (D2 C2) | %15
 [G,,G,]4 |] [G,,G,]4 | [G,,G,]2 [D,F,]2 [A,,E,]2 [B,,D,]2 | [E,G,]4 [D,A,]4 | [G,,B,]4 || %20
 [G,B,]4 | [G,B,]2 [G,B,]2 [D,A,]2 [E,G,]2 | [C,C]4 [G,B,]4 | [D,A,]4 || [G,,G,]4 | %25
 [D,A,]2 [G,,B,]2 [D,A,]2 [B,,G,]2 | [C,E,]4 [D,F,]4 | [G,,G,]4 || [G,D]4 | %29
 [G,B,]2 [E,G,]2 [D,A,]2 [C,C]2 | [G,B,]4 [D,A,]4 | [G,,G,]4 |] [C,C]4 [B,,B,]4 |] %33
V:4
 x4 | x8 | x8 | x4 || G,4 | G,2 G,2 x4 | x8 | x4 || x4 | x2 G,2 x4 | x8 | x4 || x4 | G,2 x6 | %14
 D4 D,4 | x4 |] x4 | x8 | x8 | x4 || x4 | x8 | x8 | x4 || x4 | x8 | x8 | x4 || x4 | x8 | x8 | x4 |] %32
 x8 |] %33

